X:1
T:Always Mine
T:Always Mine
T:Sun
T: Thomas Bergersen arr. Landon Hughes
C:Two Steps From Hell
%%score 1 2
L:1/8
Q:1/4=105
M:4/4
K:F
V:1 treble nm="Violin" snm="Vln."
V:2 treble nm="Violin" snm="Vln."
V:1
"^A"!mf!"^Allegro moderato""^legato" D4 | B6 A2 | G4{/B} A4 | D6 D2 | %4
"^poco rit"[Q:1/4=105] G4 F2[Q:1/4=95] _E2 |[Q:1/4=90]{/G} F4[Q:1/4=80] !breath!D4 | %6
"^a tempo"[Q:1/4=105] D2 B4 A2 | B2 d4 A2 | d2 e6- | e4 A2 e2 |{/g} f4{/gf} e2{/de} d2 | %11
{/gf} e4 A2 c2 | d6 c2 | B2{/d} c6 | z2 D2 F2 G2- | G4"^rit."[Q:1/4=100] A2[Q:1/4=90] G2 | %16
[Q:1/4=80] F4[Q:1/4=70]"_cresc."{/GF} E4 |[Q:1/4=120]"^Allegro"!f!"^agitato" !>!FDFD FDFD | %18
 FA!>!BA FDFD | FDFD FA!>!BA | FDFD FDFD | FA!>!BA FDFD |!mf!"_cresc."!<(! FDFD FA!>!BA | %23
 FDFD FDFD | FA!>!BA FDFD | FDFD FA!>!BA | FDF!<)!!fff!.D !fermata!z4 |: %27
"^B"!mf!"^legato"!<(! (uD2 F2)!<)!!f! vG4- | G2 A2 G4- | G2 A2 c2 f2 | e2 !fermata!d6 | c2 A6 | %32
!<(! A2 c2 f2 e2!<)! |!f! d8 |"^must play grace notes here"{/dedc} A8 | (A2 c2) A4 | F2 G6 | %37
 A2 G6 | (F2 G4)"^poco rit"[Q:1/4=115] A2 |[Q:1/4=105] A4[Q:1/4=100] G4 | %40
"^a tempo"[Q:1/4=120]!<(! A2 c2 f2 e2!<)! |!f! d8 | (c2 A6) |!<(! A2 c2 f2 e2!<)! |!f! d8 |1 %45
 d2 c4 A2 | F8 | (A2 G2 F2 E2) | F8 |"^accel"[Q:1/4=140]"_Percussion Solo" .D2 .D2 .D .D2 z | %50
 .D2 .D2 .D.D.D z |"^a tempo" .D2 .D2[Q:1/4=120] z4 :|2!<(! d2 f2 g2 a2 | b6!<)!!ff! a2 || %54
 g2 f2{/ga} !>!g4- |"^Percussion Solo" g4 z4 | z8 | .D2 A4 z2 | DA G4 z2 | %59
"^rit."[Q:1/4=110]!>(! D[Q:1/4=100]G[Q:1/4=90] F2[Q:1/4=80] E2[Q:1/4=70] D2 | %60
[Q:1/4=60] C2[Q:1/4=50] D6!>)! |] %61
V:2
 z4 | z8 | z8 | z8 | z8 | z8 | z8 | z8 | z8 | z8 | z8 | z8 | z8 | z8 | z8 | z8 | z8 | z8 | z8 | %19
 z8 | z8 | z8 |"_cresc."!mf!!<(! D4 E4 | F4 G4 | A4 B4 | c4 d4!<)! |!fff! e4 !fermata!z4 |: z8 | %28
 z8 | z8 | z8 | z8 | z8 | z8 | z8 | z8 | z8 | z8 | z8 | z8 | z8 | z8 | z8 | z8 | z8 |1 z8 | z8 | %47
 z8 | z8 | z8 | z8 | z8 :|2 z8 | z8 || z8 | z8 | z8 | z8 | z8 | z8 | z8 |] %61

